src/dsmComponents/Icons/edit-1-16px.svg

<svg width="16" height="16" xmlns="http://www.w3.org/2000/svg" xmlns:xlink="http://www.w3.org/1999/xlink"><defs><path d="M6 0c.6 0 1 .4 1 1s-.4 1-1 1H2v12h12v-4c0-.6.4-1 1-1s1 .4 1 1v5c0 .6-.4 1-1 1H1c-.6 0-1-.4-1-1V1c0-.6.4-1 1-1zm6.7.3c.4-.4 1-.4 1.4 0l1.6 1.6c.4.4.4 1 0 1.4L9 10H6V7z" id="edit-1-16px_svg__a"/></defs><use fill="#737373" xlink:href="#edit-1-16px_svg__a" fill-rule="evenodd"/></svg>

<?xml version="1.0" encoding="UTF-8"?>
<svg width="16px" height="16px" viewBox="0 0 16 16" version="1.1" xmlns="http://www.w3.org/2000/svg" xmlns:xlink="http://www.w3.org/1999/xlink">
    <!-- Generator: Sketch 59.1 (86144) - https://sketch.com -->
    <title>edit-1-16px</title>
    <desc>Created with Sketch.</desc>
    <defs>
        <path d="M6,0 C6.6,0 7,0.4 7,1 C7,1.6 6.6,2 6,2 L6,2 L2,2 L2,14 L14,14 L14,10 C14,9.4 14.4,9 15,9 C15.6,9 16,9.4 16,10 L16,10 L16,15 C16,15.6 15.6,16 15,16 L15,16 L1,16 C0.4,16 0,15.6 0,15 L0,15 L0,1 C0,0.4 0.4,0 1,0 L1,0 Z M12.7,0.3 C13.1,-0.1 13.7,-0.1 14.1,0.3 L14.1,0.3 L15.7,1.9 C16.1,2.3 16.1,2.9 15.7,3.3 L15.7,3.3 L9,10 L6,10 L6,7 Z" id="path-1"></path>
    </defs>
    <g id="Final" stroke="none" stroke-width="1" fill="none" fill-rule="evenodd">
        <g id="All-Nucleo-Icons" transform="translate(-319.000000, -2844.000000)">
            <g id="Solo/Nucleo/16px/edit-1" transform="translate(315.000000, 2840.000000)">
                <g id="n-edit" transform="translate(4.000000, 4.000000)">
                    <mask id="mask-2" fill="white">
                        <use xlink:href="#path-1"></use>
                    </mask>
                    <g id="Path-5" fill-rule="nonzero"></g>
                    <g id="colour/neutral/chia" mask="url(#mask-2)" fill="#737373">
                        <g transform="translate(-24.000000, -24.000000)" id="Colour">
                            <rect x="0" y="0" width="64" height="64"></rect>
                        </g>
                    </g>
                </g>
            </g>
        </g>
    </g>
</svg>
